Yaru++/apps/16/ccsm.svg

<svg height="16" width="16" xmlns="http://www.w3.org/2000/svg" xmlns:xlink="http://www.w3.org/1999/xlink"><filter id="a" color-interpolation-filters="sRGB"><feBlend in2="BackgroundImage" mode="darken"/></filter><g fill="#808080"><path d="m3.9941406 2c-1.2582.0145-2.1788906-.0306044-2.9316406.3847656-.37637.20766-.67323062.5593869-.83789062.9980469-.16467001.43867-.22460938.9595775-.22460938 1.6171875v7c0 .65761.05989937 1.178528.22460938 1.617188.16467.438659.46152062.790396.83789062.998046.75275.41532 1.6734506.370196 2.9316406.384766h.00391 8.0039061.0039c1.25819-.0145 2.178891.0306 2.931641-.384766.37637-.20766.673221-.559387.837891-.998046.1639523-.438671.2246113-.959578.2246113-1.617188v-7c0-.65761-.059899-1.1785175-.224609-1.6171875-.16466-.43866-.461521-.7903869-.837891-.9980469-.75275-.41534-1.673441-.3702456-2.931641-.3847656h-.0039-8.0039061zm2.9023438 1.0917969c1.74896-.004 3.4972636-.058227 5.2460936-.035727 1.147225.1276398 2.161038-.2843302 2.673828.7251798.25574 2.92399.06941 5.8819694.128906 8.818359-.0871.38019-.184818 1.143607-.730468 1.128907-1.157586.07705-2.318002.109463-3.478516.126953l-3.0664061-4.6874999h2.9746091l-5.4023435-4.2773438v6.884766l1.8066406-2.2617191 1.8359375 4.3613281c-1.7685221.000825-3.5382405-.02483-5.3046875-.01172-.78646-.11198-1.9999068.290294-2.4042969-.691406-.1704999-2.4656-.088844-4.9496369-.089844-7.4355469.12175-.84105-.29598-2.0645087.6875-2.5117187 1.6892-.21162 3.4083969-.077503 5.1230469-.1328125z"/><g enable-background="new" filter="url(#a)" transform="translate(-354.90036 160.05117)"/></g></svg>

<?xml version="1.0" encoding="UTF-8" standalone="no"?>
<svg
   xmlns:dc="http://purl.org/dc/elements/1.1/"
   xmlns:cc="http://creativecommons.org/ns#"
   xmlns:rdf="http://www.w3.org/1999/02/22-rdf-syntax-ns#"
   xmlns:svg="http://www.w3.org/2000/svg"
   xmlns="http://www.w3.org/2000/svg"
   xmlns:sodipodi="http://sodipodi.sourceforge.net/DTD/sodipodi-0.dtd"
   xmlns:inkscape="http://www.inkscape.org/namespaces/inkscape"
   height="16"
   width="16"
   version="1.1"
   id="svg4"
   sodipodi:docname="accessories-camera.svg"
   inkscape:version="0.92.4 (5da689c313, 2019-01-14)">
  <metadata
     id="metadata10">
    <rdf:RDF>
      <cc:Work
         rdf:about="">
        <dc:format>image/svg+xml</dc:format>
        <dc:type
           rdf:resource="http://purl.org/dc/dcmitype/StillImage" />
        <dc:title></dc:title>
      </cc:Work>
    </rdf:RDF>
  </metadata>
  <defs
     id="defs8">
    <filter
       style="color-interpolation-filters:sRGB"
       id="filter7554">
      <feBlend
         id="feBlend817"
         mode="darken"
         in2="BackgroundImage" />
    </filter>
  </defs>
  <sodipodi:namedview
     pagecolor="#ffffff"
     bordercolor="#666666"
     borderopacity="1"
     objecttolerance="10"
     gridtolerance="10"
     guidetolerance="10"
     inkscape:pageopacity="0"
     inkscape:pageshadow="2"
     inkscape:window-width="1920"
     inkscape:window-height="1016"
     id="namedview6"
     showgrid="false"
     inkscape:zoom="52.4375"
     inkscape:cx="8"
     inkscape:cy="6.5529203"
     inkscape:window-x="0"
     inkscape:window-y="27"
     inkscape:window-maximized="1"
     inkscape:current-layer="svg4" />
  <path
     style="fill:#808080"
     d="M 3.9941406,2 C 2.7359406,2.0145 1.81525,1.9693956 1.0625,2.3847656 0.68613,2.5924256 0.38926938,2.9441525 0.22460938,3.3828125 0.05993937,3.8214825 0,4.34239 0,5 v 7 c 0,0.65761 0.05989937,1.178528 0.22460938,1.617188 C 0.38927938,14.055847 0.68613,14.407584 1.0625,14.615234 1.81525,15.030554 2.7359506,14.98543 3.9941406,15 h 0.00391 8.0039061 0.0039 c 1.25819,-0.0145 2.178891,0.0306 2.931641,-0.384766 0.37637,-0.20766 0.673221,-0.559387 0.837891,-0.998046 C 15.939341,13.178517 16,12.65761 16,12 V 5 C 16,4.34239 15.940101,3.8214825 15.775391,3.3828125 15.610731,2.9441525 15.31387,2.5924256 14.9375,2.3847656 14.18475,1.9694256 13.264059,2.01452 12.005859,2 h -0.0039 -8.0039061 z m 2.9023438,1.0917969 c 1.74896,-0.004 3.4972636,-0.058227 5.2460936,-0.035727 1.147225,0.1276398 2.161038,-0.2843302 2.673828,0.7251798 0.25574,2.92399 0.06941,5.8819694 0.128906,8.818359 -0.0871,0.38019 -0.184818,1.143607 -0.730468,1.128907 -1.157586,0.07705 -2.318002,0.109463 -3.478516,0.126953 L 7.6699219,9.1679688 H 10.644531 L 5.2421875,4.890625 v 6.884766 L 7.0488281,9.5136719 8.8847656,13.875 c -1.7685221,8.25e-4 -3.5382405,-0.02483 -5.3046875,-0.01172 -0.78646,-0.11198 -1.9999068,0.290294 -2.4042969,-0.691406 -0.1704999,-2.4656 -0.088844,-4.9496369 -0.089844,-7.4355469 0.12175,-0.84105 -0.29598,-2.0645087 0.6875,-2.5117187 1.6892,-0.21162 3.4083969,-0.077503 5.1230469,-0.1328125 z"
     id="path2"
     inkscape:connector-curvature="0"
     sodipodi:nodetypes="cccssccccccccssccccccccccccccccccccccc" />
  <g
     id="g824"
     transform="translate(-354.90036,160.05117)"
     style="fill:#808080;filter:url(#filter7554);enable-background:new" />
</svg>
